X: 1
T: O'Donnell's Sligo Maid
M: 4/4
L: 1/8
R: reel
K: Ador
f|efed ^cdef|gedB AGEF|G2AG BGAG|DEGA BAAf|
efed (3B^cd ef|gedB AGEF|GAAG BGAG|DEGA BAA:|
|:g|eaag a2gf|gabg agef|~g3e ~d2ef|gded (3B^cd eg|
eaag a2gf|gabg agef|gbeg ~d2ef|gded BAA:|
